X: 1
T: the Glenburnie Rant
T: Fight About the Fireside
C: Neil Gow
R: reel
S: page in Concord Slow Scottish Session collection
S: handwritten page labelled "Potomac Valley Scottish Fiddle Club"
Z: 2015 John Chambers <jc:trillian.mit.edu>
M: C|
L: 1/8
K: Em
|: e2 |\
"Em"E2EF E2EF | "D" DEFG AFDF |\
"Em"E2EF E2B2 | "B7"efe^d "Em"e2 :| B2 |\
"Em"e2ef g2fe | "D" defg afdf |
 "C"e2ef g2fe | "B7"efe^d "Em"e2B2 |\
"Em"e2ef g2fe | "D" defg afdf |\
 "G"g2bg "D"f2af | "B7"efe^d "Em"e2 |]
